!!!!SEGMENT: pl-cz--ii-87--004-007_hepner--msza-st-benedictus.krn
!!!cenid: 18xx:1194
!!!COM: Hepner
!!!COM-rismID: pe30021002
!!!CDT: ~1800-~1899
!!!CNT:
!!!OPR: Msza St.
!!!OTL: Benedictus
!!!OMV: 007
!!!PDT: 1888
!!!AGN: Sacred; Mass
!!!SMS-siglum: PL-CZ
!!!SMS-shelfmark: II-87
!!!SMS-shelfwork: 004-007 M
!!!SMS-variant:
!!!SMS-altvar:
!!!NIFC-rismSourceID: 300033223
!!!NIFC-rismChildID: 300033227
!!!NIFC-islandoraID: pl-cz:33881
!!!URL-pdf-islandora: https://repozytorium.nifc.pl/islandora/object/pl-cz%3A33881/datastream/PDF/view
!!!URL-scan: https://polish.musicsources.pl/pl/lokalizacje/galeria/rekopisy/6814/1 @EN{Scan on Polish Music Sources Website} @PL{Skany w portalu Dziedzictwo Muzyki Polskiej w otwartym dostępie}
!!!IIIF:
!!!ONB-nifc: UWAGA: części Mszy: Kirie, Gloria, Graduale, Credo, Offertorium, Sanctus, Benedictus, Agnus, Communio, Benedicio
!!!OMD: Andante
!!!AIN: 1 organ 1 vox
!!!key: G
**kern	**kern	**text
*part2	*part1	*part1
*staff2	*staff1	*staff1
*I"Organo	*I"Voce	*
*Iorgan	*Ivox	*
*ICklav	*ICvox	*
*clefF4	*clefG2	*
*k[f#]	*k[f#]	*
*G:	*G:	*
*M4/4	*M4/4	*
*met(c)	*met(c)	*
=1	=1	=1
2GG/ 2G/	4.g\ 4.b\ 4.dd\	.
.	8a\ 8cc\	.
2r	8a#X\L 8cc#X\	.
.	8b\ 8dd\	.
.	8cc#\ 8ee\	.
.	8b\J 8dd\	.
=2	=2	=2
2G\ 2B\ 2d\	4.bb\	.
.	8aa\	.
8r	8gg\L	.
8GG/L 8BB/	16ff#\L	.
.	16gg\JJ	.
8AA/ 8C/	16aa\LL	.
.	16gg\	.
8BB/J 8D/	16ff#\	.
.	16gg\JJ	.
=3	=3	=3
2C/ 2E/	8ee\L	.
.	8eee\J	.
.	16ddd\LL	.
.	16ccc\	.
.	16bb\	.
.	16aa\JJ	.
4D\ 4G\ 4B\	4gg\	.
4D\ 4F#\ 4c\	8.bb\L	.
.	16aa\Jk	.
=4	=4	=4
*^	*	*
8c/L	2D\ 2F#\	2aa\	.
8d-X/	.	.	.
8d-/	.	.	.
8c/J	.	.	.
4B\	2ryy	4gg\	.
!!LO:PB:g=original
=||-	=||-	=||-	=||-
4r	.	8b/L	Spoj-
.	.	8g/J	-żyj
*v	*v	*	*
=5||	=5||	=5||
4G\	4g\ 4cc\ 4ee\	z Twe-
4G\	4g\ 4b\ 4dd\	-go
4G\	4g\ 4cc\ 4ee\	tro-
4G\	4g\ 4b\ 4dd\	-nu
=6	=6	=6
*	*^	*
2D\ 2d\	4dd/	2a\	Bo-
.	4cc/	.	-że
4G\ 4d\	4b/	4g\	przyj-
4r	8b/L 8dd/	4ryy	-mij
.	8g/J 8b/	.	.
*	*v	*v	*
=7	=7	=7
4D\	4f#/ 4a/	przez
4F#\	4d/ 4f#/ 4a/	Twe-
4E\	4c#X/ 4g/ 4a/	-go
4D\	4d/ 4f#/ 4a/	ka-
=8	=8	=8
2C#X\ 2A\	(<4a/	-pła-
.	4g/)	.
4D\ 4A\	4d/ 4f#/	-na
4r	8b/L	cosz
.	8g/J	się
=9	=9	=9
2G\	4g\ 4cc\ 4ee\	sil-
.	4g\ 4b\ 4dd\	-niej
2G\	4g\ 4cc\ 4ee\	wzru-
.	4g\ 4b\ 4dd\	-szyć
!!LO:LB:g=original
=10	=10	=10
2E\	2a\ 2cc#X\ 2gg\	może
4D\	4b\ 4dd\ 4ff#\	jak
4G\	4g\ 4b\ 4dd\	krew
=11	=11	=11
2AA\ 2A\	4f#/ 4a/ 4dd/	Sy-
.	4f#/ 4a/ 4dd/	-na
2AA\ 2A\	4e/ 4g/ 4a/ 4cc#X/	za
.	4e/ 4g/ 4a/ 4cc#/	nas
=12	=12	=12
4D\	2f#\ 2a\ 2dd\	lana
8F#\L	.	.
8A\J	.	.
4d\	4r	.
4r	8f#/L 8a/	Zaw-
.	8f#/J 8a/	-sze
=13	=13	=13
4D\ 4d\	4g/ 4b-X/	on
4D\ 4d\	4g/ 4b-/	swe-
4D\ 4d\	4g/ 4b-/	-mi
4D\ 4d\	4g/ 4b-/	mę-
=14	=14	=14
4D\ 4d\	(<8g/L 8b-X/	-ka-
.	8f#X/J) 8a/	.
4D\ 4d\	4f#/ 4a/	-mi
4D\ 4d\	4r	.
4D\ 4d\	8f#/L 8a/	swym
.	8f#/J 8a/	się
=15	=15	=15
4D\ 4d\	4g/ 4b-X/	zgo-
4D\ 4d\	4g/ 4b-/	-nem
4D\ 4d\	4g/ 4a/ 4cc#X/	bła-
4D\ 4d\	4g/ 4a/ 4cc#/	-ga
!!LO:LB:g=original
=16	=16	=16
8D\L 8d\	2f#\ 2a\ 2dd\	prosi
8D\	.	.
8F#\	.	.
8A\J	.	.
4d\	4r	.
4r	8g/L 8bn/	on
.	8a/J 8ccn/	i
=17	=17	=17
4G\	4b\ 4dd\	w_tej
4G\	4g\ 4b\ 4dd\	chwi-
4G\	4g\ 4cc\ 4ee\	-li
4G\	4g\ 4b\ 4dd\	za-
=18	=18	=18
2G\ 2d\	(>4dd/	-na-
.	4cc/)	.
8G\ 8d\	8b;>/	-mi
8r	8r	.
4d\	4g/ 4b-X/	Krzyż
=19	=19	=19
4d\	4g/ 4b-X/	swuj
4d\	4g/ 4b-/	do
4c#X\	4g/ 4b-/	cie-
4c#\	4g/ 4b-/	-bie
=20	=20	=20
*^	*^	*
2d\	2ryy	2a/	2f#\	pod
4cn/	2D\	2a/	2f#\	no-
4c/	.	.	.	.
*v	*v	*	*	*
*	*v	*v	*
=21	=21	=21
4G\ 4B\	4g/	-gi
4r	4r	.
2D\	2c/ 2d/ 2f#/	.
!!LO:LB:g=original
=22	=22	=22
4GG\ 4G\	4B/ 4d/ 4g/	.
4r	4r	.
(>(<2D\	2c/ 2d/ 2f#/	.
=23	=23	=23
*	*^	*
1GG/)) 1G/	1g/	4B\ 4d\	.
.	.	4c\ 4e-X\	.
.	.	4B\ 4d\	.
.	.	4c\ 4e-\	.
*	*v	*v	*
=24	=24	=24
1GG/;> 1G/	1B/;> 1d/ 1g/	.
==	==	==
*-	*-	*-
!!!system-decoration: [(s1,s2)]
!!!RDF**kern: < = below
!!!RDF**kern: > = above
!!!ENC: Tomasz Grochalski
!!!END: 2020-11-07
!!!ENC: Marta Chmielewska
!!!END: 2021-11-15
!!!YEC: Copyright 2022 Narodowy Instytut Fryderyka Chopina (https://polishscores.org)
!!!YEM: License CC-BY-4.0 (https://creativecommons.org/licenses/by/4.0)
